X:230
T:Birth Day. VWMLa.230, The
%%VWML:Anon2-3049-p149-0
F:http://www.vwml.org/record/Anon2/3049/p149
S:Anon. MS, late 18thC, Vaughan Williams Mem. Library
O:England;Yorkshire
Z:vmp/efdss.Simon Wilson. Reviewed PJH 2008.
M:2/4
L:1/8
Q:1/4=120
K:A
Ac/d/ ec|fd fa|ee/f/ ec|BB Bz|\
Ac/d/ ec|fd fa|ee/f/ ec|Aa az:|
.a(a/g/) af|bg e2|ff/g/ fe|dB Bz|\
aa/g/ af|b>g e2|ff ^dd|!D.C.!eE Ez|]
